apps/mobile/assets/icons/phosphor/hard-drives.svg

<svg
  height="32"
  viewBox="0 0 256 256"
  width="32"
  xmlns="http://www.w3.org/2000/svg"
>
  <path
    d="m208 136h-160a16 16 0 0 0 -16 16v48a16 16 0 0 0 16 16h160a16 16 0 0 0 16-16v-48a16 16 0 0 0 -16-16zm0 64h-160v-48h160zm0-160h-160a16 16 0 0 0 -16 16v48a16 16 0 0 0 16 16h160a16 16 0 0 0 16-16v-48a16 16 0 0 0 -16-16zm0 64h-160v-48h160zm-16-24a12 12 0 1 1 -12-12 12 12 0 0 1 12 12zm0 96a12 12 0 1 1 -12-12 12 12 0 0 1 12 12z"
  />
</svg>

<svg xmlns="http://www.w3.org/2000/svg" width="32" height="32" fill="#000000" viewBox="0 0 256 256"><path d="M208,136H48a16,16,0,0,0-16,16v48a16,16,0,0,0,16,16H208a16,16,0,0,0,16-16V152A16,16,0,0,0,208,136Zm0,64H48V152H208v48Zm0-160H48A16,16,0,0,0,32,56v48a16,16,0,0,0,16,16H208a16,16,0,0,0,16-16V56A16,16,0,0,0,208,40Zm0,64H48V56H208v48ZM192,80a12,12,0,1,1-12-12A12,12,0,0,1,192,80Zm0,96a12,12,0,1,1-12-12A12,12,0,0,1,192,176Z"></path></svg>
